X: 169
T: Magnificat Octavi toni
N: Derived from Rue2014-Magnificat_Octavi_toni.krn
C: Pierre de la Rue
%%abc-version 2.0
%%abcx-abcm2ps-target-version 5.9.1 (29 Sep 2008)
%%abc-creator hum2abc beta
%%abcx-conversion-date 2019/02/17 08:01:17
%%abc-edited-by Jesse Rodin
%%abc-edited-by Megan K. Eagen 2013/01/24
%%abcx-initial-encoding-date 2013/01/24/
%%humdrum-veritas 1803122157
%%humdrum-veritas-data 3663561009
%%linebreak <none>
%%barnumbers 0
L: 1/4
M: 2/1
Q: 1/2=120
%%staves [1 2 3 4]
V: 1 clef=treble
V: 2 clef=treble-8
V: 3 clef=treble-8
V: 4 clef=bass
K: C
[V:1] z8 | 
[V:2] z4d4 | 
[V:3] G8- | 
[V:4] z8 | 
[V:1] z8 | 
[V:2] d4e3d | 
[V:3] G8 | 
[V:4] z8 | 
[V:1] z8 | 
[V:2] edg4^f2 | 
[V:3] G4A4 | 
[V:4] z8 | 
[V:1] z4G4 | 
[V:2] g4e2B2 | 
[V:3] G8 | 
[V:4] z8 | 
[V:1] G4A3G | 
[V:2] e3dc2B2 | 
[V:3] c8 | 
[V:4] z8 | 
[V:1] AGc4B2 | 
[V:2] A4G4 | 
[V:3] c4d4 | 
[V:4] z8 | 
[V:1] c2G2c3B | 
[V:2] z8 | 
[V:3] c4cBAG | 
[V:4] z4C,4- | 
[V:1] A2G2F4 | 
[V:2] z8 | 
[V:3] AGc4B2 | 
[V:4] C,4D,4 | 
[V:1] E3FGEA2- | 
[V:2] z2G4F2 | 
[V:3] c8- | 
[V:4] C,3D,E,C,F,2- | 
[V:1] A2G2A2E2 | 
[V:2] G4F2G2 | 
[V:3] c8- | 
[V:4] F,2E,2F,2C,2 | 
[V:1] A3GF2E2 | 
[V:2] A2A4A2- | 
[V:3] c8 | 
[V:4] F,3E,D,2C,2 | 
[V:1] D4C4 | 
[V:2] A2^G2A4 | 
[V:3] z8 | 
[V:4] B,,4A,,4 | 
[V:1] z4G4 | 
[V:2] z4z2e2 | 
[V:3] c8 | 
[V:4] z2C,4B,,A,, | 
[V:1] G4A4- | 
[V:2] e2e2f3e | 
[V:3] c8 | 
[V:4] C,4F,,4- | 
[V:1] A4B4 | 
[V:2] d2c2B4 | 
[V:3] d4d4 | 
[V:4] F,,4G,,4 | 
[V:1] c6BA | 
[V:2] A4z2G2 | 
[V:3] c8- | 
[V:4] A,,4z2E,2 | 
[V:1] G4z4 | 
[V:2] G2G2A3G | 
[V:3] c8 | 
[V:4] E,2E,2F,3E, | 
[V:1] z2B2B2B2 | 
[V:2] F2E2D4 | 
[V:3] d8 | 
[V:4] D,2C,2B,,4 | 
[V:1] c3BA2G2 | 
[V:2] E4F2E2 | 
[V:3] c4c4 | 
[V:4] A,,4z4 | 
[V:1] F4E4 | 
[V:2] F4G4 | 
[V:3] c8 | 
[V:4] z4C,4- | 
[V:1] c4c4- | 
[V:2] e8 | 
[V:3] c3BA2G2 | 
[V:4] C,8 | 
[V:1] c4c4 | 
[V:2] f4g4 | 
[V:3] F4E4 | 
[V:4] F,,4C,4 | 
[V:1] z4c4- | 
[V:2] z4f4 | 
[V:3] z8 | 
[V:4] z4F,4 | 
[V:1] c4c4- | 
[V:2] f4e4 | 
[V:3] z8 | 
[V:4] F,4C,4 | 
[V:1] c4B4 | 
[V:2] f4d4 | 
[V:3] z8 | 
[V:4] F,4G,4 | 
[V:1] c4A4- | 
[V:2] c8 | 
[V:3] z4c4- | 
[V:4] C,4F,4 | 
[V:1] A4G4 | 
[V:2] z8 | 
[V:3] c4c4- | 
[V:4] F,4E,4 | 
[V:1] z2C2D2F2 | 
[V:2] z8 | 
[V:3] c4B4 | 
[V:4] F,4D,4 | 
[V:1] E2A3G^FE | 
[V:2] z4c4 | 
[V:3] c4A4- | 
[V:4] C,4z4 | 
[V:1] ^F4G4 | 
[V:2] d8 | 
[V:3] A4G4 | 
[V:4] D,4G,,4- | 
[V:1] z2B4AG | 
[V:2] d8- | 
[V:3] z8 | 
[V:4] G,,8 | 
[V:1] A2G2d4 | 
[V:2] d8 | 
[V:3] z2B4AG | 
[V:4] F,,2G,,6 | 
[V:1] d4G2B2 | 
[V:2] z2B4AG | 
[V:3] A2G2d4 | 
[V:4] F,,2G,,6 | 
[V:1] A2B2G2d2- | 
[V:2] A2G2d4 | 
[V:3] d4G4 | 
[V:4] F,,2G,,4B,,2- | 
[V:1] d2cBc2B2- | 
[V:2] G2B2A2B2- | 
[V:3] z2d2c2d2 | 
[V:4] B,,2A,,G,,A,,2G,,2 | 
[V:1] BAG4^F2 | 
[V:2] Bcded4 | 
[V:3] B4A4 | 
[V:4] D,4D,4 | 
[V:1] G8 ||  
[V:2] d8 ||  
[V:3] G8 ||  
[V:4] G,,8 ||  
[V:1]  [K:C] [K:clef=treble][M:2/1]z8 | 
[V:2]  [K:C] [K:clef=treble-8][M:2/1]d3cd2e2- | 
[V:3]  [K:C] [K:clef=treble-8][M:2/1]G8 | 
[V:4]  [K:C] [K:clef=bass][M:2/1]G,,3A,,B,,2C,2- | 
[V:1] z8 | 
[V:2] e2dcB2c2 | 
[V:3] A4G4 | 
[V:4] C,D,E,F,G,2C,2- | 
[V:1] z8 | 
[V:2] e4d4 | 
[V:3] c4B4 | 
[V:4] C,B,,C,2G,,4 | 
[V:1] z4G3F | 
[V:2] c3de2e2- | 
[V:3] c8 | 
[V:4] z4C,3D, | 
[V:1] G2A4GF | 
[V:2] edcBA4 | 
[V:3] c4c4 | 
[V:4] E,2F,3G,A,B, | 
[V:1] E2F2A4 | 
[V:2] z4z2f2- | 
[V:3] c8 | 
[V:4] C2F,3E,F,2 | 
[V:1] G4F4 | 
[V:2] f2e2f3e | 
[V:3] c8 | 
[V:4] C,4F,4 | 
[V:1] z2c4B2 | 
[V:2] fedcd4 | 
[V:3] z8 | 
[V:4] A,4G,4 | 
[V:1] c3BcBAG | 
[V:2] c3defg2- | 
[V:3] z8 | 
[V:4] C,4z4 | 
[V:1] A4G4 | 
[V:2] g2f2d2ed | 
[V:3] z8 | 
[V:4] z2F,4E,2 | 
[V:1] z8 | 
[V:2] cBA4G2- | 
[V:3] z4z2c2- | 
[V:4] F,3E,F,E,D,C, | 
[V:1] z8 | 
[V:2] G2F2E2G2- | 
[V:3] c2B2c3B | 
[V:4] D,4C,3D, | 
[V:1] z8 | 
[V:2] G2FED4 | 
[V:3] cBAGA4 | 
[V:4] E,F,G,4^F,2 | 
[V:1] z8 | 
[V:2] d8 | 
[V:3] G3ABcd2- | 
[V:4] G,4D,4 | 
[V:1] z8 | 
[V:2] z8 | 
[V:3] d2c4B2 | 
[V:4] B,,2C,2D,4 | 
[V:1] G3ABcd2- | 
[V:2] z8 | 
[V:3] c4d4 | 
[V:4] C,4z4 | 
[V:1] d2c4B2 | 
[V:2] z8 | 
[V:3] B2c2d4 | 
[V:4] z8 | 
[V:1] c8 | 
[V:2] z4z2c2 | 
[V:3] c8 | 
[V:4] C,3D,E,2F,2- | 
[V:1] c4c4 | 
[V:2] c3defg2- | 
[V:3] A3GG4 | 
[V:4] F,2E,D,C,4- | 
[V:1] c8 | 
[V:2] g2f4e2 | 
[V:3] E2F2G4 | 
[V:4] C,2F,,2C,4 | 
[V:1] c6BA | 
[V:2] f4f4 | 
[V:3] A4F4 | 
[V:4] F,,8 | 
[V:1] BAGFE2G2 | 
[V:2] g4g4 | 
[V:3] c8 | 
[V:4] z8 | 
[V:1] A2F4E2 | 
[V:2] f4g4 | 
[V:3] z4c4 | 
[V:4] z8 | 
[V:1] F2D4F2 | 
[V:2] f8 | 
[V:3] d4d4 | 
[V:4] z8 | 
[V:1] E2DCB,3A, | 
[V:2] z8 | 
[V:3] c4d4 | 
[V:4] z8 | 
[V:1] C4c4 | 
[V:2] z2g4fe | 
[V:3] c8 | 
[V:4] z8 | 
[V:1] d4d4 | 
[V:2] f2d4f2 | 
[V:3] z8 | 
[V:4] z8 | 
[V:1] c4d4 | 
[V:2] e2dcB3A | 
[V:3] z8 | 
[V:4] z8 | 
[V:1] c8 | 
[V:2] c4z4 | 
[V:3] z2c4BA | 
[V:4] z4F,4 | 
[V:1] z8 | 
[V:2] z8 | 
[V:3] B2G4B2 | 
[V:4] G,4G,4 | 
[V:1] z4G4 | 
[V:2] z8 | 
[V:3] A2GFE3D | 
[V:4] F,4G,4 | 
[V:1] A4c4- | 
[V:2] z4e4 | 
[V:3] F4z4 | 
[V:4] F,4z4 | 
[V:1] c4B4 | 
[V:2] f4d4 | 
[V:3] z4G4 | 
[V:4] z8 | 
[V:1] c4A4 | 
[V:2] c8 | 
[V:3] A4c4- | 
[V:4] z8 | 
[V:1] G4z2A2- | 
[V:2] z8 | 
[V:3] c8- | 
[V:4] E,4F,4- | 
[V:1] ABc2d4 | 
[V:2] z2f4ed | 
[V:3] c4B4 | 
[V:4] F,4D,4 | 
[V:1] G2A3Bc2 | 
[V:2] e4f4 | 
[V:3] c4A4 | 
[V:4] C,4z4 | 
[V:1] B2G4FE | 
[V:2] g2e4dc | 
[V:3] G8- | 
[V:4] z4G,,4- | 
[V:1] D4E4 | 
[V:2] B4c4 | 
[V:3] G8 | 
[V:4] G,,4C,4 | 
[V:1] z2E4E2 | 
[V:2] d2e2c4 | 
[V:3] z4G4- | 
[V:4] B,,2C,4C,2 | 
[V:1] D2E3FG2 | 
[V:2] z2c4Bc | 
[V:3] G8 | 
[V:4] B,,2C,3D,E,2 | 
[V:1] F2A4c2- | 
[V:2] d2c2f4 | 
[V:3] A8 | 
[V:4] D,2F,4E,D, | 
[V:1] c2BAG2A2 | 
[V:2] e2f2g4- | 
[V:3] c8 | 
[V:4] C,2D,2E,2F,2 | 
[V:1] B2c2d4 | 
[V:2] g2fed4 | 
[V:3] B8 | 
[V:4] G,8 | 
[V:1] G2A3Bc2- | 
[V:2] e2c2f2e2 | 
[V:3] c8 | 
[V:4] E,2F,3E,C,2 | 
[V:1] cBAG^F3E | 
[V:2] d2c2d4 | 
[V:3] A8 | 
[V:4] F,3E,D,4 | 
[V:1] G8 ||  
[V:2] d8 ||  
[V:3] G8 ||  
[V:4] G,,8 ||  
[V:1]  [K:C] [K:clef=treble][M:2/1]z8 | 
[V:2]  [K:C] [K:clef=treble-8][M:2/1]z8 | 
[V:3]  [K:C] [K:clef=treble-8][M:2/1]G8 | 
[V:4]  [K:C] [K:clef=bass][M:2/1]z8 | 
[V:1] z8 | 
[V:2] z4z2g2- | 
[V:3] A3Bcde2- | 
[V:4] z4C,4- | 
[V:1] z8 | 
[V:2] g2fef4 | 
[V:3] e2c4B2 | 
[V:4] C,4D,4 | 
[V:1] z8 | 
[V:2] e2e3dcB | 
[V:3] c8 | 
[V:4] C,3D,E,2F,2- | 
[V:1] z8 | 
[V:2] A2G2A2c2- | 
[V:3] z8 | 
[V:4] F,2E,2F,E,D,C, | 
[V:1] z8 | 
[V:2] c2B2c4 | 
[V:3] z8 | 
[V:4] D,4C,4 | 
[V:1] z8 | 
[V:2] z8 | 
[V:3] c8 | 
[V:4] z2C,4D,E, | 
[V:1] z8 | 
[V:2] z2c4de | 
[V:3] c4c4 | 
[V:4] F,2E,3D,C,B,, | 
[V:1] z8 | 
[V:2] f2e3dcB | 
[V:3] c8- | 
[V:4] A,,4z2E,2 | 
[V:1] z8 | 
[V:2] A2z2e3d/e/ | 
[V:3] c8 | 
[V:4] F,2E,4D,C, | 
[V:1] z8 | 
[V:2] f2e3dBc | 
[V:3] z8 | 
[V:4] D,2C,4B,,A,, | 
[V:1] z8 | 
[V:2] dcBA^G3^F | 
[V:3] z8 | 
[V:4] G,,2A,,2B,,4 | 
[V:1] z8 | 
[V:2] A4z4 | 
[V:3] c8- | 
[V:4] A,,8- | 
[V:1] z8 | 
[V:2] e4e2f2- | 
[V:3] c8- | 
[V:4] A,,8- | 
[V:1] z8 | 
[V:2] f2ede4 | 
[V:3] c8 | 
[V:4] A,,8 | 
[V:1] z8 | 
[V:2] d8- | 
[V:3] d3cBAG2 | 
[V:4] z8 | 
[V:1] z8 | 
[V:2] d8- | 
[V:3] A4A2B2- | 
[V:4] D,3E,F,2G,2 | 
[V:1] z8 | 
[V:2] d8 | 
[V:3] B2AGA4 | 
[V:4] D,2G,4^F,2 | 
[V:1] z8 | 
[V:2] z8 | 
[V:3] G4z2G2 | 
[V:4] G,3F,E,D,C,2- | 
[V:1] z8 | 
[V:2] z8 | 
[V:3] G3AB2c2 | 
[V:4] C,2C,2D,2E,2- | 
[V:1] z8 | 
[V:2] z4d4 | 
[V:3] G2c4B2 | 
[V:4] E,2D,C,D,4 | 
[V:1] z8 | 
[V:2] e4edcB | 
[V:3] c8- | 
[V:4] C,4C,B,,A,,G,, | 
[V:1] z8 | 
[V:2] A2c3BAG | 
[V:3] c8 | 
[V:4] F,,3G,,A,,B,,C,2- | 
[V:1] z8 | 
[V:2] A2G4^F2 | 
[V:3] c8 | 
[V:4] C,B,,A,,G,,A,,4 | 
[V:1] z8 | 
[V:2] G4z4 | 
[V:3] B8- | 
[V:4] G,,8- | 
[V:1] z8 | 
[V:2] d4dcBA | 
[V:3] B8- | 
[V:4] G,,8 | 
[V:1] z8 | 
[V:2] G4z4 | 
[V:3] B8 | 
[V:4] G,4G,F,E,D, | 
[V:1] z8 | 
[V:2] e4edcB | 
[V:3] c8- | 
[V:4] C,4z4 | 
[V:1] z8 | 
[V:2] A4z2e2 | 
[V:3] c8 | 
[V:4] A,4A,G,F,E, | 
[V:1] z8 | 
[V:2] f4f2d2- | 
[V:3] d8 | 
[V:4] D,4D,C,B,,A,, | 
[V:1] z8 | 
[V:2] dcB4AG | 
[V:3] d8 | 
[V:4] G,,2G,4B,2 | 
[V:1] z8 | 
[V:2] F2G4B2 | 
[V:3] d8- | 
[V:4] A,2B,2G,4 | 
[V:1] z8 | 
[V:2] A2B2G4 | 
[V:3] d8- | 
[V:4] F,2G,4B,2 | 
[V:1] z8 | 
[V:2] F2G4B2 | 
[V:3] d8- | 
[V:4] A,2B,2G,2G,,2 | 
[V:1] z8 | 
[V:2] A2B3AG2- | 
[V:3] d8 | 
[V:4] F,,2G,,4B,,2 | 
[V:1] z8 | 
[V:2] G2^F2G4 | 
[V:3] c4B4 | 
[V:4] A,,4G,,4 | 
[V:1] z8 | 
[V:2] A4B4 | 
[V:3] c4d4- | 
[V:4] z4G,,4 | 
[V:1] z8 | 
[V:2] c4e4 | 
[V:3] d2c2c4- | 
[V:4] C,8 | 
[V:1] z8 | 
[V:2] d8 | 
[V:3] c4B4 | 
[V:4] G,,8 | 
[V:1] z8 | 
[V:2] c8 | 
[V:3] c2A4GF | 
[V:4] C,8 | 
[V:1] z8 | 
[V:2] c4c4 | 
[V:3] E2F4E2 | 
[V:4] z4C,4 | 
[V:1] z8 | 
[V:2] c4c4 | 
[V:3] F2A2G2E2 | 
[V:4] F,,2F,,2C,4 | 
[V:1] z8 | 
[V:2] c4c4- | 
[V:3] F4E4- | 
[V:4] F,,4C,4- | 
[V:1] z8 | 
[V:2] c4c4 | 
[V:3] E4A4 | 
[V:4] C,4A,,4 | 
[V:1] z8 | 
[V:2] c4B4 | 
[V:3] A4G4 | 
[V:4] A,,4E,4 | 
[V:1] z8 | 
[V:2] c4A4 | 
[V:3] A4F4 | 
[V:4] A,,4D,4 | 
[V:1] z8 | 
[V:2] G4A4 | 
[V:3] G4c4 | 
[V:4] G,,4z4 | 
[V:1] z8 | 
[V:2] A4G4 | 
[V:3] c4B4 | 
[V:4] z8 | 
[V:1] z8 | 
[V:2] A4F4 | 
[V:3] c4A4 | 
[V:4] z8 | 
[V:1] z8 | 
[V:2] G4e4 | 
[V:3] G8 | 
[V:4] z4C,4 | 
[V:1] z8 | 
[V:2] e4d4 | 
[V:3] z4G4 | 
[V:4] C,4B,,4 | 
[V:1] z8 | 
[V:2] e4c4 | 
[V:3] G4F4 | 
[V:4] C,4A,,4 | 
[V:1] z8 | 
[V:2] B8- | 
[V:3] G4E4 | 
[V:4] G,,8- | 
[V:1] z8 ||  
[V:2] B8 ||  
[V:3] D8 ||  
[V:4] G,,8 ||  
[V:1]  [K:C] [K:clef=treble][M:2/1]z8 | 
[V:2]  [K:C] [K:clef=treble-8][M:2/1]G8 | 
[V:3]  [K:C] [K:clef=treble-8][M:2/1]z8 | 
[V:4]  [K:C] [K:clef=bass][M:2/1]z8 | 
[V:1] z8 | 
[V:2] A4G3A | 
[V:3] z8 | 
[V:4] z8 | 
[V:1] G8 | 
[V:2] B2c3BG2 | 
[V:3] z8 | 
[V:4] z8 | 
[V:1] A4G3A | 
[V:2] d4e4- | 
[V:3] z8 | 
[V:4] z8 | 
[V:1] B2c3BG2 | 
[V:2] e2A2e4 | 
[V:3] z8 | 
[V:4] z8 | 
[V:1] A2GF(3E2F2G2 | 
[V:2] f4g4 | 
[V:3] z8 | 
[V:4] z8 | 
[V:1] C2G3ABc | 
[V:2] g2cdefg2 | 
[V:3] z8 | 
[V:4] z8 | 
[V:1] d2G2z2G2- | 
[V:2] G2c3def | 
[V:3] z8 | 
[V:4] z8 | 
[V:1] G2CDEFG2 | 
[V:2] g4z2g2- | 
[V:3] z8 | 
[V:4] z8 | 
[V:1] C2c4B2 | 
[V:2] g2cdefg2 | 
[V:3] z8 | 
[V:4] z8 | 
[V:1] c4B2A2- | 
[V:2] c2e4AB | 
[V:3] z8 | 
[V:4] z8 | 
[V:1] A2G2A2G2- | 
[V:2] cde2A2e2- | 
[V:3] z8 | 
[V:4] z8 | 
[V:1] GCE2D4 | 
[V:2] e2c4B2 | 
[V:3] z8 | 
[V:4] z8 | 
[V:1] C8 | 
[V:2] c4z2c2- | 
[V:3] z8 | 
[V:4] z8 | 
[V:1] z4G4 | 
[V:2] cBc3Bc2 | 
[V:3] z8 | 
[V:4] z8 | 
[V:1] G4A4 | 
[V:2] B2c2F2c2 | 
[V:3] z8 | 
[V:4] z8 | 
[V:1] A4G4 | 
[V:2] z2c3Bc2 | 
[V:3] z8 | 
[V:4] z8 | 
[V:1] A4G2c2- | 
[V:2] F2c3de2 | 
[V:3] z8 | 
[V:4] z8 | 
[V:1] cBAGA4 | 
[V:2] f2g4^f2 | 
[V:3] z8 | 
[V:4] z8 | 
[V:1] z2G4FE | 
[V:2] g4G4 | 
[V:3] z8 | 
[V:4] z8 | 
[V:1] D2E3DE2- | 
[V:2] z4G4 | 
[V:3] z8 | 
[V:4] z8 | 
[V:1] EDE4A,2 | 
[V:2] G4A4 | 
[V:3] z8 | 
[V:4] z8 | 
[V:1] z2E3DE2 | 
[V:2] A4G4 | 
[V:3] z8 | 
[V:4] z8 | 
[V:1] A,2E3DE2 | 
[V:2] A4G2c2- | 
[V:3] z8 | 
[V:4] z8 | 
[V:1] F2G4^F2 | 
[V:2] cBAGA4 | 
[V:3] z8 | 
[V:4] z8 | 
[V:1] G4z4 | 
[V:2] G8 | 
[V:3] z8 | 
[V:4] z8 | 
[V:1] G4G4 | 
[V:2] z4c4- | 
[V:3] z8 | 
[V:4] z8 | 
[V:1] A4G4 | 
[V:2] c4c4- | 
[V:3] z8 | 
[V:4] z8 | 
[V:1] z2c4B2 | 
[V:2] c4d4 | 
[V:3] z8 | 
[V:4] z8 | 
[V:1] A3Bc2d2- | 
[V:2] c2f2e2d2- | 
[V:3] z8 | 
[V:4] z8 | 
[V:1] dcA2B2G2 | 
[V:2] def2g3f | 
[V:3] z8 | 
[V:4] z8 | 
[V:1] F2G3FD2 | 
[V:2] d2e2c2B2 | 
[V:3] z8 | 
[V:4] z8 | 
[V:1] E2C2B,2C2- | 
[V:2] c3BG2A2 | 
[V:3] z8 | 
[V:4] z8 | 
[V:1] CB,G,2z2G2 | 
[V:2] F2E2e4 | 
[V:3] z8 | 
[V:4] z8 | 
[V:1] A2B2c2BA | 
[V:2] d4c4 | 
[V:3] z8 | 
[V:4] z8 | 
[V:1] G2A4G2 | 
[V:2] z2c2d2e2 | 
[V:3] z8 | 
[V:4] z8 | 
[V:1] A8 | 
[V:2] f2edc2d2 | 
[V:3] z8 | 
[V:4] z8 | 
[V:1] z8 | 
[V:2] A2f2f2e2 | 
[V:3] z8 | 
[V:4] z8 | 
[V:1] z2c2c2B2 | 
[V:2] f4d4 | 
[V:3] z8 | 
[V:4] z8 | 
[V:1] c4A4 | 
[V:2] c2c2d2f2 | 
[V:3] z8 | 
[V:4] z8 | 
[V:1] G2G2A2c2 | 
[V:2] f2e2f2e2 | 
[V:3] z8 | 
[V:4] z8 | 
[V:1] c2B2c2B2 | 
[V:2] f2d2c2G2 | 
[V:3] z8 | 
[V:4] z8 | 
[V:1] c2A2G2c2- | 
[V:2] A2c2B2c2 | 
[V:3] z8 | 
[V:4] z8 | 
[V:1] c2B2c2A2- | 
[V:2] A2G2z2c2 | 
[V:3] z8 | 
[V:4] z8 | 
[V:1] A2G4^F2 | 
[V:2] B2c2A4 | 
[V:3] z8 | 
[V:4] z8 | 
[V:1] G8 ||  
[V:2] G8 ||  
[V:3] z8 ||  
[V:4] z8 ||  
[V:1]  [K:C] [K:clef=treble][M:2/1]G4F2G2- | 
[V:2]  [K:C] [K:clef=treble-8][M:2/1]G4A2G2 | 
[V:3]  [K:C] [K:clef=treble-8][M:2/1]z8 | 
[V:4]  [K:C] [K:clef=bass][M:2/1]z8 | 
[V:1] G2F2G3F | 
[V:2] A4G2A2 | 
[V:3] z8 | 
[V:4] z8 | 
[V:1] G2E2F2G2 | 
[V:2] G2A4B2 | 
[V:3] z8 | 
[V:4] z8 | 
[V:1] C4z4 | 
[V:2] c4z4 | 
[V:3] c4B2c2- | 
[V:4] C,4D,2C,2 | 
[V:1] z8 | 
[V:2] z8 | 
[V:3] c2B2c3B | 
[V:4] D,4C,2D,2 | 
[V:1] z4G4 | 
[V:2] z8 | 
[V:3] c2A2B2c2 | 
[V:4] C,2D,4E,2 | 
[V:1] A3Bc2c2- | 
[V:2] z4c4- | 
[V:3] F3GABc2- | 
[V:4] F,8 | 
[V:1] cAc2B4 | 
[V:2] c4d3e | 
[V:3] c2BAG4 | 
[V:4] z8 | 
[V:1] A3Bc2d2- | 
[V:2] f2f3df2 | 
[V:3] F8 | 
[V:4] z8 | 
[V:1] d2c3BG2 | 
[V:2] d2f2e4 | 
[V:3] z8 | 
[V:4] z8 | 
[V:1] A2B2E4 | 
[V:2] d4c4 | 
[V:3] z2G2A3B | 
[V:4] z8 | 
[V:1] z8 | 
[V:2] z8 | 
[V:3] c2c3Ac2 | 
[V:4] C,8 | 
[V:1] z8 | 
[V:2] z8 | 
[V:3] B4A3B | 
[V:4] D,3E,F,2F,2- | 
[V:1] z8 | 
[V:2] z8 | 
[V:3] c2d4c2- | 
[V:4] F,D,F,2D,2F,2 | 
[V:1] z8 | 
[V:2] z8 | 
[V:3] cBG2A2B2 | 
[V:4] E,4D,4 | 
[V:1] z8 | 
[V:2] z8 | 
[V:3] E4z2G2 | 
[V:4] z2C,2B,,2C,2 | 
[V:1] z8 | 
[V:2] z4z2c2 | 
[V:3] F2G2A2G2 | 
[V:4] D,2C,3D,E,F, | 
[V:1] z2c2B2c2 | 
[V:2] B2c2d2c2 | 
[V:3] z4z2c2 | 
[V:4] G,2C,2G,2A,2 | 
[V:1] d2c4B2 | 
[V:2] g8- | 
[V:3] B2c2d4 | 
[V:4] G,2C,2G,4 | 
[V:1] c8 | 
[V:2] g8 | 
[V:3] c8- | 
[V:4] C,8 | 
[V:1] z2c4BA | 
[V:2] z4f4 | 
[V:3] c8 | 
[V:4] F,,8 | 
[V:1] G4A4 | 
[V:2] e4f4 | 
[V:3] z8 | 
[V:4] C,4F,,4 | 
[V:1] z2G4FE | 
[V:2] g8 | 
[V:3] z4c4 | 
[V:4] C,8 | 
[V:1] D4E4 | 
[V:2] g8 | 
[V:3] B4c4 | 
[V:4] z8 | 
[V:1] D2CB,A,4 | 
[V:2] f8 | 
[V:3] d8 | 
[V:4] D,8 | 
[V:1] B,4G,4 | 
[V:2] g8 | 
[V:3] d8- | 
[V:4] G,,8 | 
[V:1] z2F3GA2- | 
[V:2] f8- | 
[V:3] d8 | 
[V:4] D,8 | 
[V:1] ABc3BAG | 
[V:2] f8- | 
[V:3] c8 | 
[V:4] F,8 | 
[V:1] B2A4d2 | 
[V:2] f8- | 
[V:3] d8- | 
[V:4] D,8- | 
[V:1] A2d3cB2 | 
[V:2] f8 | 
[V:3] d8 | 
[V:4] D,8 | 
[V:1] A2G2z2c2- | 
[V:2] z8 | 
[V:3] c8- | 
[V:4] z4F,4 | 
[V:1] cBAGFEA2- | 
[V:2] z2c3BAG | 
[V:3] c8- | 
[V:4] E,2A,3G,F,2- | 
[V:1] A2G4F2 | 
[V:2] F2G2A4 | 
[V:3] c8 | 
[V:4] F,2E,2F,4 | 
[V:1] G4G2E2- | 
[V:2] G4z2g2- | 
[V:3] z8 | 
[V:4] C,8 | 
[V:1] EFG2C2c2- | 
[V:2] gfededa2- | 
[V:3] z8 | 
[V:4] z2C3B,A,G, | 
[V:1] c2B2c2A2 | 
[V:2] a2g4^f2 | 
[V:3] z4c4 | 
[V:4] F,2G,2A,4 | 
[V:1] B8 | 
[V:2] g8 | 
[V:3] d8- | 
[V:4] G,8 | 
[V:1] A4B4 | 
[V:2] f4g2fe | 
[V:3] d8 | 
[V:4] D,4G,4- | 
[V:1] z2B2A2B2- | 
[V:2] d2e2f2g2 | 
[V:3] d6d2 | 
[V:4] G,4D,2G,2- | 
[V:1] B2A4G2 | 
[V:2] e2f2d4- | 
[V:3] c4B4 | 
[V:4] G,2F,2G,4 | 
[V:1] A8 | 
[V:2] d4d4 | 
[V:3] A4z2d2- | 
[V:4] D,8 | 
[V:1] z2d3c_BA | 
[V:2] _B3cd4 | 
[V:3] dc_BA_B2G2 | 
[V:4] G,,8 | 
[V:1] _B2AGF2B2 | 
[V:2] G4z4 | 
[V:3] d6c_B | 
[V:4] z8 | 
[V:1] A2G4^F2 | 
[V:2] z8 | 
[V:3] c_BAGA4 | 
[V:4] z8 | 
[V:1] G8- | 
[V:2] z4z2g2- | 
[V:3] G8 | 
[V:4] z2G,3F,E,D, | 
[V:1] G8 | 
[V:2] gfede2dc | 
[V:3] z8 | 
[V:4] E,2C,2G,4- | 
[V:1] z8 | 
[V:2] B2e2d2c2- | 
[V:3] z8 | 
[V:4] G,2F,E,F,E,D,C, | 
[V:1] z8 | 
[V:2] c2B2c2g2- | 
[V:3] z8 | 
[V:4] D,4C,4 | 
[V:1] z2G3FED | 
[V:2] gfede2c2 | 
[V:3] z8 | 
[V:4] C,8 | 
[V:1] E2DCB,2E2 | 
[V:2] g6fe | 
[V:3] z8 | 
[V:4] z8 | 
[V:1] D2C4B,2 | 
[V:2] fedcd4 | 
[V:3] z8 | 
[V:4] z8 | 
[V:1] C4z4 | 
[V:2] c4z4 | 
[V:3] z8 | 
[V:4] z8 | 
[V:1] c8- | 
[V:2] e8- | 
[V:3] c8- | 
[V:4] C,8- | 
[V:1] c4c4 | 
[V:2] e4f4 | 
[V:3] c4A4 | 
[V:4] C,4F,,4 | 
[V:1] c8 | 
[V:2] f8 | 
[V:3] A8- | 
[V:4] F,,8 | 
[V:1] z4c4 | 
[V:2] z4f4 | 
[V:3] A8- | 
[V:4] z4F,4 | 
[V:1] c4c4 | 
[V:2] f2f2f2f2 | 
[V:3] A8- | 
[V:4] F,2F,2F,2F,2 | 
[V:1] c4c4 | 
[V:2] e4f4 | 
[V:3] A8 | 
[V:4] C,4F,4 | 
[V:1] B8 | 
[V:2] d4d4 | 
[V:3] z8 | 
[V:4] G,4G,4 | 
[V:1] c8 | 
[V:2] c8 | 
[V:3] z8 | 
[V:4] C,8 | 
[V:1] A4A4 | 
[V:2] c4c2c2 | 
[V:3] z4c4 | 
[V:4] z8 | 
[V:1] G8 | 
[V:2] c2c2G4- | 
[V:3] c4c4 | 
[V:4] z4C,4 | 
[V:1] G6A2 | 
[V:2] G4G4 | 
[V:3] c4c4 | 
[V:4] C,2C,2C,2C,2 | 
[V:1] B2c2d4 | 
[V:2] d8 | 
[V:3] B8 | 
[V:4] G,,8 | 
[V:1] G4G2A2- | 
[V:2] e8 | 
[V:3] c8 | 
[V:4] C,8 | 
[V:1] AG^FEF4 | 
[V:2] d8- | 
[V:3] A4A4 | 
[V:4] D,4D,4 | 
[V:1] G8 ||  
[V:2] d8 ||  
[V:3] G8 ||  
[V:4] G,,8 ||  
[V:1]  [K:C] [K:clef=treble][M:3/1]G8G4 | 
[V:2]  [K:C] [K:clef=treble-8][M:3/1]d6c2d4 | 
[V:3]  [K:C] [K:clef=treble-8][M:3/1]G12- | 
[V:4]  [K:C] [K:clef=bass][M:3/1]G,,6A,,2B,,2G,,2 | 
[V:1] G6A2B2G2 | 
[V:2] e8d4 | 
[V:3] G12 | 
[V:4] C,8B,,4 | 
[V:1] c8A4- | 
[V:2] c6d2e2c2 | 
[V:3] A12- | 
[V:4] A,,6B,,2C,2A,,2 | 
[V:1] A4d6c2 | 
[V:2] f8d4- | 
[V:3] A12 | 
[V:4] D,8D,4 | 
[V:1] B2A2G6F2 | 
[V:2] d4e8 | 
[V:3] G6A2B2G2 | 
[V:4] G,,8G,,4 | 
[V:1] A12- | 
[V:2] f8f4 | 
[V:3] c8c4 | 
[V:4] F,,12- | 
[V:1] A4c8 | 
[V:2] c6B2A4 | 
[V:3] A8A4 | 
[V:4] F,,4F,,8 | 
[V:1] B8G4- | 
[V:2] G6A2B2c2 | 
[V:3] d6c2B2A2 | 
[V:4] G,,8G,,4 | 
[V:1] G2A2B4G4 | 
[V:2] d8e4- | 
[V:3] G6A2B4 | 
[V:4] G,6F,2E,2D,2 | 
[V:1] A4c6B2 | 
[V:2] e4e4c4 | 
[V:3] c8c4- | 
[V:4] C,8A,,4 | 
[V:1] A8G4 | 
[V:2] f8e4 | 
[V:3] c4c8 | 
[V:4] F,,4C,8 | 
[V:1] A4G4A4 | 
[V:2] f4e4f4 | 
[V:3] c12 | 
[V:4] F,,4C,4F,,4 | 
[V:1] G4E4F4 | 
[V:2] e4c4d4 | 
[V:3] z12 | 
[V:4] C,8B,,4 | 
[V:1] E6F2G4 | 
[V:2] c6BAG4 | 
[V:3] c12- | 
[V:4] C,12 | 
[V:1] A4G4A4 | 
[V:2] F4E4F4 | 
[V:3] c12 | 
[V:4] z12 | 
[V:1] D6E2F4 | 
[V:2] G6FED4 | 
[V:3] B12- | 
[V:4] z12 | 
[V:1] G4F4G4 | 
[V:2] E4D4E4 | 
[V:3] B12 | 
[V:4] z12 | 
[V:1] C8z4 | 
[V:2] E6F2G4 | 
[V:3] c12- | 
[V:4] C,6D,2E,4 | 
[V:1] z12 | 
[V:2] A4G4A4 | 
[V:3] c12 | 
[V:4] F,4E,4F,4 | 
[V:1] z12 | 
[V:2] F6G2A4 | 
[V:3] d12- | 
[V:4] D,6E,2F,4 | 
[V:1] z12 | 
[V:2] _B4A4_B4 | 
[V:3] d12 | 
[V:4] G,4F,4G,4 | 
[V:1] E6F2G4 | 
[V:2] G8z4 | 
[V:3] c12- | 
[V:4] C,6D,2E,4 | 
[V:1] A6G2F2E2 | 
[V:2] z12 | 
[V:3] c12 | 
[V:4] F,6E,2D,2C,2 | 
[V:1] F8F4- | 
[V:2] F8_B4 | 
[V:3] d12- | 
[V:4] _B,,12- | 
[V:1] F4_B8 | 
[V:2] F4f8 | 
[V:3] d12 | 
[V:4] B,,4_B,,8 | 
[V:1] A6B2c4 | 
[V:2] f12- | 
[V:3] c12 | 
[V:4] F,6E,2D,2C,2 | 
[V:1] d4c4d4 | 
[V:2] f12 | 
[V:3] z12 | 
[V:4] _B,,4F,4B,,4 | 
[V:1] G6A2B4 | 
[V:2] e12- | 
[V:3] z12 | 
[V:4] C,2D,2E,2F,2G,4 | 
[V:1] c4B4c4 | 
[V:2] e12 | 
[V:3] z12 | 
[V:4] C,4G,4C,4 | 
[V:1] A8z4 | 
[V:2] f12- | 
[V:3] F6G2A4 | 
[V:4] D,12- | 
[V:1] z12 | 
[V:2] f12 | 
[V:3] _B4A4_B4 | 
[V:4] D,4D,8 | 
[V:1] z12 | 
[V:2] g12- | 
[V:3] G6A2B4 | 
[V:4] E,12- | 
[V:1] z12 | 
[V:2] g12 | 
[V:3] c4B4c4 | 
[V:4] E,4E,8 | 
[V:1] A8A4- | 
[V:2] f8f4 | 
[V:3] F6G2A2B2 | 
[V:4] D,8D,4 | 
[V:1] A4B8 | 
[V:2] e4g8 | 
[V:3] c4d8 | 
[V:4] C,4=B,,8 | 
[V:1] c6B2A2G2 | 
[V:2] e4f6e2 | 
[V:3] c8c4 | 
[V:4] A,,4F,,8 | 
[V:1] G8^F4 | 
[V:2] d2c2d8 | 
[V:3] B4A8 | 
[V:4] G,,4D,8 | 
[V:1] G6E2F4 | 
[V:2] B8z4 | 
[V:3] G8A4 | 
[V:4] G,,8z4 | 
[V:1] G4E2C2D4 | 
[V:2] z12 | 
[V:3] B2G4c4B2 | 
[V:4] z12 | 
[V:1] C4G4A4 | 
[V:2] g6e2f4 | 
[V:3] c8z4 | 
[V:4] z12 | 
[V:1] B2G4c4B2 | 
[V:2] g4e2c2d4 | 
[V:3] z4z4G4 | 
[V:4] z12 | 
[V:1] c12 | 
[V:2] c8z4 | 
[V:3] A4c6c2 | 
[V:4] z4z4C,4 | 
[V:1] z12 | 
[V:2] z12 | 
[V:3] c8z4 | 
[V:4] E,4F,6F,2 | 
[V:1] z12 | 
[V:2] z12 | 
[V:3] c4c4B4 | 
[V:4] F,8z4 | 
[V:1] z12 | 
[V:2] z12 | 
[V:3] c4A4G4 | 
[V:4] F,4F,4E,4 | 
[V:1] z4z4G4 | 
[V:2] c4d4e4 | 
[V:3] z12 | 
[V:4] F,4D,4C,4 | 
[V:1] A4c6c2 | 
[V:2] f6f2f4- | 
[V:3] z12 | 
[V:4] z12 | 
[V:1] c8z4 | 
[V:2] f4f4f4 | 
[V:3] z12 | 
[V:4] z12 | 
[V:1] c4c4B4 | 
[V:2] e4f4d4 | 
[V:3] z12 | 
[V:4] z12 | 
[V:1] c4A8 | 
[V:2] c12 | 
[V:3] z12 | 
[V:4] F,8F,4 | 
[V:1] G4C4D4 | 
[V:2] z12 | 
[V:3] c4c4B4 | 
[V:4] E,4F,4D,4 | 
[V:1] E8D2C2 | 
[V:2] z12 | 
[V:3] c4A8 | 
[V:4] C,8z4 | 
[V:1] B,8B4 | 
[V:2] e8d4 | 
[V:3] G8G4 | 
[V:4] E,4D,2C,2B,,4 | 
[V:1] c4c6c2 | 
[V:2] c4e8 | 
[V:3] A8c4- | 
[V:4] A,,8A,,4- | 
[V:1] c8z4 | 
[V:2] e8z4 | 
[V:3] c4c8 | 
[V:4] A,,2A,,2A,,8 | 
[V:1] c4c4B4 | 
[V:2] e4f4g4 | 
[V:3] c8z4 | 
[V:4] A,4A,4G,4 | 
[V:1] c4A6G2 | 
[V:2] e4f4d4 | 
[V:3] c4c4B4 | 
[V:4] A,4F,4G,4 | 
[V:1] G8^F4 | 
[V:2] e4d8 | 
[V:3] c4A8 | 
[V:4] C,4D,8 | 
[V:1] G12 |]  
[V:2] d12 |]  
[V:3] G12 |]  
[V:4] G,,12 |]  



